src/scalable/apps/hearthstone.svg

<?xml version="1.0" encoding="UTF-8" standalone="no"?>
<svg
   width="64"
   height="64"
   version="1.1"
   id="svg10"
   sodipodi:docname="hearthstone.svg"
   inkscape:version="1.2.2 (b0a8486541, 2022-12-01)"
   xml:space="preserve"
   xmlns:inkscape="http://www.inkscape.org/namespaces/inkscape"
   xmlns:sodipodi="http://sodipodi.sourceforge.net/DTD/sodipodi-0.dtd"
   xmlns:xlink="http://www.w3.org/1999/xlink"
   xmlns="http://www.w3.org/2000/svg"
   xmlns:svg="http://www.w3.org/2000/svg"><defs
     id="defs14"><linearGradient
       id="linearGradient991"
       gradientUnits="userSpaceOnUse"><stop
         offset="0"
         stop-color="#c0bfbc"
         id="stop985"
         style="stop-color:#d5d5d5;stop-opacity:1;" /><stop
         offset="0.602"
         stop-color="#9a9996"
         id="stop987" /><stop
         offset="1"
         stop-color="#77767b"
         id="stop989" /></linearGradient><linearGradient
       id="linearGradient983"
       gradientUnits="userSpaceOnUse"><stop
         offset="0"
         stop-color="#c0bfbc"
         id="stop977"
         style="stop-color:#d5d5d5;stop-opacity:1;" /><stop
         offset="0.602"
         stop-color="#9a9996"
         id="stop979" /><stop
         offset="1"
         stop-color="#77767b"
         id="stop981" /></linearGradient><linearGradient
       id="linearGradient1040"
       gradientUnits="userSpaceOnUse"><stop
         offset="0"
         stop-color="#c0bfbc"
         id="stop1032"
         style="stop-color:#d5d5d5;stop-opacity:1;" /><stop
         offset="0.602"
         stop-color="#9a9996"
         id="stop1036" /><stop
         offset="1"
         stop-color="#77767b"
         id="stop1038" /></linearGradient><linearGradient
       id="linearGradient84653"
       inkscape:swatch="solid"><stop
         style="stop-color:#a72712;stop-opacity:1;"
         offset="0"
         id="stop84651" /></linearGradient><linearGradient
       id="g"
       gradientTransform="matrix(-1.32633,1.33986,1.32633,1.222706,-467.63562,-261.11777)"
       x1="50.980999"
       x2="50.980999"
       xlink:href="#d"
       y1="248.218"
       y2="252.218" /><linearGradient
       id="d"
       gradientUnits="userSpaceOnUse"><stop
         offset="0"
         stop-color="#c0bfbc"
         id="stop13" /><stop
         offset="0.351"
         stop-color="#ffffff"
         id="stop15" /><stop
         offset="0.602"
         stop-color="#9a9996"
         id="stop17" /><stop
         offset="1"
         stop-color="#77767b"
         id="stop19" /></linearGradient><linearGradient
       id="h"
       gradientTransform="matrix(-1.331449,-1.33145,-1.21503,1.33145,168.57111,-123.4634)"
       x1="50.980999"
       x2="50.980999"
       xlink:href="#d"
       y1="248.218"
       y2="252.218" /><linearGradient
       id="i"
       gradientTransform="matrix(-1.33145,1.331449,1.33145,1.21503,-490.60403,-236.74478)"
       x1="50.980999"
       x2="50.980999"
       xlink:href="#d"
       y1="248.218"
       y2="252.218" /><linearGradient
       id="j"
       gradientTransform="matrix(-1.331449,-1.33145,-1.21503,1.33145,146.57111,-145.46339)"
       x1="50.980999"
       x2="50.980999"
       xlink:href="#d"
       y1="248.218"
       y2="252.218" /><linearGradient
       id="f"
       gradientTransform="matrix(0.20538098,0,0,0.19168891,-62.878741,8.3127741)"
       x1="60"
       x2="68"
       xlink:href="#d"
       y1="199.856"
       y2="199.856" /><linearGradient
       id="e"
       gradientTransform="matrix(0.20538098,0,0,0.19168891,-62.878741,17.349537)"
       x1="60"
       x2="68"
       xlink:href="#d"
       y1="199.856"
       y2="199.856" /><clipPath
       id="c"><rect
         height="152"
         width="192"
         id="rect10"
         x="0"
         y="0" /></clipPath><mask
       id="b"><g
         filter="url(#a)"
         id="g7"><image
           height="152"
           width="192"
           xlink:href="data:image/png;base64,iVBORw0KGgoAAAANSUhEUgAAAMAAAACYCAYAAACyAeadAAAABmJLR0QA/wD/AP+gvaeTAAABW0lEQVR4nO3TsQ2EQBAEweVNMiH/YMjkbZI4cUhdFcBonJ4BAAAAAAAAAAAAAAAAAAAAAAAAAAAA4D3H4r1rZs7Fm6z1n5l794mv+O0+ADsJgDQBkCYA0gRAmgBIEwBpAiBNAKQJgDQBkCYA0gRAmgBIEwBpAiBNAKQJgDQBkCYA0gRAmgBIEwBpAiBNAKQJgDQBkCYA0gRAmgBIEwBpAiBNAKQJgDQBkCYA0gRAmgBIEwBpAiBNAKQJgDQBkCYA0gRAmgBIEwBpAiBNAKQJgDQBkCYA0gRAmgBIEwBpAiBNAKQJgDQBkCYA0gRAmgBIEwBpAiBNAKQJgDQBkCYA0gRAmgBIEwBpAiBNAKQJgDQBkCYA0gRAmgBIEwBpAiBNAKQJgDQBkCYA0gRAmgBIEwBpAiBNAKQJgDQBkCYA0gRAmgBIEwAAAAAAAAAAAAAAAAAAAAAAAAAAsNEDwrUCwMKng3EAAAAASUVORK5CYII="
           id="image5" /></g></mask><filter
       id="a"
       height="1"
       width="1"
       x="0"
       y="0"><feColorMatrix
         in="SourceGraphic"
         type="matrix"
         values="0 0 0 0 1 0 0 0 0 1 0 0 0 0 1 0 0 0 1 0"
         id="feColorMatrix2" /></filter><linearGradient
       id="c-5"
       gradientUnits="userSpaceOnUse"
       x1="129.939"
       x2="126.351"
       xlink:href="#a-3"
       y1="252.718"
       y2="16.927999"
       gradientTransform="translate(-222.5,-157.5)" /><linearGradient
       id="a-3"><stop
         offset="0"
         stop-color="#589632"
         id="stop2" /><stop
         offset="1"
         stop-color="#93b023"
         id="stop4" /></linearGradient><linearGradient
       id="b-5"
       gradientUnits="userSpaceOnUse"
       x1="200.78799"
       x2="197.17"
       xlink:href="#a-3"
       y1="249.007"
       y2="11.232"
       gradientTransform="translate(-222.5,-157.5)" /></defs><sodipodi:namedview
     id="namedview12"
     pagecolor="#ffffff"
     bordercolor="#111111"
     borderopacity="1"
     inkscape:showpageshadow="0"
     inkscape:pageopacity="0"
     inkscape:pagecheckerboard="1"
     inkscape:deskcolor="#d1d1d1"
     showgrid="false"
     inkscape:zoom="7.9999999"
     inkscape:cx="16.5625"
     inkscape:cy="25.625"
     inkscape:window-width="1920"
     inkscape:window-height="1011"
     inkscape:window-x="0"
     inkscape:window-y="0"
     inkscape:window-maximized="1"
     inkscape:current-layer="g922"><inkscape:grid
       type="xygrid"
       id="grid870" /></sodipodi:namedview><g
     stroke-width=".75"
     id="g8" /><path
     id="rect2"
     style="fill:#5183ff;fill-opacity:1;stroke:none;stroke-opacity:1"
     d="M 32,4.9999998 C 17.042015,4.9999998 5,17.042015 5,32 5,46.957985 17.042015,59 32,59 46.957985,59 59,46.957985 59,32 59,17.042015 46.957985,4.9999998 32,4.9999998 Z"
     sodipodi:nodetypes="sssss" /><g
     id="g922"
     transform="matrix(0.40565331,0,0,0.43233661,-19.555398,70.510822)"><g
       id="g1361"
       style="opacity:1;fill:#eceffc;fill-opacity:1"
       transform="matrix(0.47436211,0,0,0.47436211,197.04962,-48.300878)"><ellipse
         style="opacity:1;fill:#eceffc;fill-opacity:1;stroke-width:13.0783;stroke-linecap:round"
         id="path802"
         cx="-146.71069"
         cy="-84.657646"
         rx="78.79528"
         ry="73.932121" /><path
         sodipodi:type="star"
         style="opacity:1;fill:#eceffc;fill-opacity:1;stroke-width:1.43404;stroke-linecap:round"
         id="path236"
         inkscape:flatsided="false"
         sodipodi:sides="4"
         sodipodi:cx="78.555336"
         sodipodi:cy="63.492592"
         sodipodi:r1="67.092705"
         sodipodi:r2="33.863487"
         sodipodi:arg1="1.5707963"
         sodipodi:arg2="2.3827965"
         inkscape:rounded="0"
         inkscape:randomized="0"
         d="M 78.555338,130.5853 53.981794,86.792309 11.462631,63.492594 55.255619,38.91905 78.555334,-3.6001129 103.12888,40.192875 145.64804,63.49259 101.85505,88.066134 Z"
         transform="matrix(1.8128678,0,0,1.7009799,-289.88714,-193.95745)" /><path
         sodipodi:type="star"
         style="opacity:1;fill:#eceffc;fill-opacity:1;stroke-width:1.43404;stroke-linecap:round"
         id="path238"
         inkscape:flatsided="false"
         sodipodi:sides="4"
         sodipodi:cx="35.757145"
         sodipodi:cy="102.89784"
         sodipodi:r1="63.675747"
         sodipodi:r2="29.000212"
         sodipodi:arg1="-0.78539816"
         sodipodi:arg2="0.0039162645"
         inkscape:rounded="0"
         inkscape:randomized="0"
         d="M 80.782698,57.87229 64.757134,103.01141 80.782697,147.9234 35.643573,131.89783 -9.2684077,147.92339 6.7571556,102.78427 -9.2684074,57.87229 35.870717,73.897853 Z"
         transform="matrix(1.6787111,0,0,1.5751031,-207.62235,-248.05061)" /></g><path
       style="fill:#5183ff;fill-opacity:1;stroke:none;stroke-width:1.13271px;stroke-linecap:butt;stroke-linejoin:miter;stroke-opacity:1"
       d="m 111.15493,-70.746928 5.39488,-2.191904 3.43466,-0.391708 c 0,0 1.29248,-1.713882 2.17016,-2.338511 6.22214,-0.594892 11.30852,-3.34535 15.59274,-6.949615 3.33696,-4.442157 2.15135,-8.567399 1.42442,-14.068948 0,0 -2.5766,-2.78813 -4.10168,-4.652766 -4.68267,-0.42057 -10.7238,-0.76641 -14.43842,3.158666 -0.85102,2.64637 -0.88663,5.84041 -0.88663,5.84041 l 1.18581,3.294291 3.81379,-0.545135 -1.54958,-3.577276 8.01238,-0.46899 2.47134,9.104011 -5.82486,4.669822 c 0,0 -2.25402,0.889153 -6.85646,1.462659 -6.57233,-1.278566 -12.00705,-11.374715 -12.00705,-11.374715 l -0.23377,-7.514827 -1.51567,-1.25127 0.50146,-2.074466 3.93936,-1.49751 3.63334,-4.43836 8.86306,-5.41422 3.54894,1.28537 c 0,0 1.60149,-0.91567 2.61468,-1.24294 3.90529,0.82681 7.3081,2.55646 9.80985,4.0205 0.51856,0.0127 1.45672,-0.51369 1.45672,-0.51369 l 7.26423,8.665716 2.25614,11.01331 c -3.61979,3.546159 -1.60481,11.759168 -8.57802,15.808526 -5.67567,5.248457 -10.91208,5.81313 -10.91208,5.81313 l -8.10484,1.530847 -10.08845,-2.456706 z"
       id="path1426"
       sodipodi:nodetypes="cccccccccccccccccccccccccccccccccc" /></g></svg>

<svg xmlns="http://www.w3.org/2000/svg" xml:space="preserve" width="64" height="64"><defs><linearGradient id="a" gradientUnits="userSpaceOnUse"><stop offset="0" stop-color="#c0bfbc"/><stop offset=".351" stop-color="#fff"/><stop offset=".602" stop-color="#9a9996"/><stop offset="1" stop-color="#77767b"/></linearGradient><linearGradient id="c"><stop offset="0" stop-color="#589632"/><stop offset="1" stop-color="#93b023"/></linearGradient><filter id="b" width="1" height="1" x="0" y="0"><feColorMatrix in="SourceGraphic" values="0 0 0 0 1 0 0 0 0 1 0 0 0 0 1 0 0 0 1 0"/></filter></defs><path d="M32 5A26.94 26.94 0 0 0 5 32a26.94 26.94 0 0 0 27 27 26.94 26.94 0 0 0 27-27A26.94 26.94 0 0 0 32 5Z" style="fill:#5183ff;fill-opacity:1;stroke:none;stroke-opacity:1"/><g style="opacity:1;fill:#eceffc;fill-opacity:1" transform="matrix(.19243 0 0 .20508 60.378 49.629)"><ellipse cx="-146.711" cy="-84.658" rx="78.795" ry="73.932" style="opacity:1;fill:#eceffc;fill-opacity:1;stroke-width:13.0783;stroke-linecap:round"/><path d="M78.555 130.585 53.982 86.792l-42.52-23.3L55.257 38.92l23.3-42.52 24.573 43.794 42.519 23.3-43.793 24.573Z" style="opacity:1;fill:#eceffc;fill-opacity:1;stroke-width:1.43404;stroke-linecap:round" transform="matrix(1.81287 0 0 1.70098 -289.887 -193.957)"/><path d="m80.783 57.872-16.026 45.14 16.026 44.911-45.14-16.025-44.911 16.025 16.025-45.139-16.025-44.912L35.87 73.898Z" style="opacity:1;fill:#eceffc;fill-opacity:1;stroke-width:1.43404;stroke-linecap:round" transform="matrix(1.67871 0 0 1.5751 -207.622 -248.05)"/></g><path d="m111.155-70.747 5.395-2.192 3.434-.392s1.293-1.713 2.17-2.338c6.223-.595 11.31-3.345 15.593-6.95 3.337-4.442 2.152-8.567 1.425-14.069 0 0-2.577-2.788-4.102-4.652-4.683-.42-10.724-.767-14.438 3.158-.851 2.647-.887 5.84-.887 5.84l1.186 3.295 3.814-.545-1.55-3.577 8.012-.47 2.472 9.105-5.825 4.67s-2.254.889-6.857 1.462c-6.572-1.278-12.007-11.375-12.007-11.375l-.233-7.514-1.516-1.252.501-2.074 3.94-1.498 3.633-4.438 8.863-5.414 3.55 1.285s1.6-.916 2.614-1.243c3.905.827 7.308 2.557 9.81 4.02.518.013 1.456-.513 1.456-.513l7.265 8.666 2.256 11.013c-3.62 3.546-1.605 11.76-8.578 15.809-5.676 5.248-10.912 5.813-10.912 5.813l-8.105 1.53-10.089-2.456z" style="fill:#5183ff;fill-opacity:1;stroke:none;stroke-width:1.13271px;stroke-linecap:butt;stroke-linejoin:miter;stroke-opacity:1" transform="matrix(.40565 0 0 .43234 -19.555 70.51)"/></svg>
